assets/icons/junk/_.svg

<?xml version="1.0" encoding="UTF-8" standalone="no"?>
<svg viewBox="0 0 24 24" height="24" width="24" version="1.1" id="svg8" sodipodi:docname="mark-junk.svg" inkscape:version="1.1 (ce6663b3b7, 2021-05-25)"
   xmlns:inkscape="http://www.inkscape.org/namespaces/inkscape"
   xmlns:sodipodi="http://sodipodi.sourceforge.net/DTD/sodipodi-0.dtd"
   xmlns="http://www.w3.org/2000/svg"
   xmlns:svg="http://www.w3.org/2000/svg"
   xmlns:rdf="http://www.w3.org/1999/02/22-rdf-syntax-ns#"
   xmlns:cc="http://creativecommons.org/ns#"
   xmlns:dc="http://purl.org/dc/elements/1.1/">
   <metadata id="metadata14">
      <rdf:RDF>
         <cc:Work rdf:about="">
            <dc:format>image/svg+xml</dc:format>
            <dc:type rdf:resource="http://purl.org/dc/dcmitype/StillImage" />
         </cc:Work>
      </rdf:RDF>
   </metadata>
   <defs id="defs12" />
   <sodipodi:namedview pagecolor="#ffffff" bordercolor="#666666" borderopacity="1" objecttolerance="10" gridtolerance="10" guidetolerance="10" inkscape:pageopacity="0" inkscape:pageshadow="2" inkscape:window-width="1920" inkscape:window-height="1016" id="namedview10" showgrid="true" inkscape:zoom="27.5" inkscape:cx="10.927273" inkscape:cy="12.527273" inkscape:window-x="0" inkscape:window-y="27" inkscape:window-maximized="1" inkscape:current-layer="svg8" inkscape:pagecheckerboard="0">
      <inkscape:grid type="xygrid" id="grid839" />
      <inkscape:grid type="xygrid" id="grid841" dotted="true" spacingx="0.5" spacingy="0.5" empspacing="10" />
   </sodipodi:namedview>
   <path style="color:#000000;fill:#808080;-inkscape-stroke:none;fill-opacity:1" d="m 7.7929687,2 -0.1464843,0.1464844 -5.6464844,5.6464843 v 8.4140623 l 5.7929687,5.792969 h 8.4140623 l 5.792969,-5.792969 v -8.4140623 l -5.792969,-5.7929687 z m 0.4140626,1 h 7.5859377 l 5.207031,5.2070313 v 7.5859377 l -5.207031,5.207031 h -7.5859377 l -5.2070313,-5.207031 v -7.5859377 z" id="path859" />
   <circle style="fill:#808080;fill-opacity:1;fill-rule:evenodd;stroke-width:2;stroke-linecap:square" id="path1072" cx="12" cy="17" r="1" />
   <path style="fill:#808080;fill-opacity:1;stroke:none;stroke-width:1px;stroke-linecap:butt;stroke-linejoin:miter" d="m 11,6 h 2 v 5 l -0.4,3 h -1.2 l -0.4,-3 z" id="path1217" sodipodi:nodetypes="ccccccc" />
</svg>

<svg height="24" width="24" xmlns="http://www.w3.org/2000/svg"><path style="color:#000;fill:gray;-inkscape-stroke:none;fill-opacity:1" d="m7.793 2-.147.146L2 7.793v8.414L7.793 22h8.414L22 16.207V7.793L16.207 2zm.414 1h7.586L21 8.207v7.586L15.793 21H8.207L3 15.793V8.207z"/><circle style="fill:gray;fill-opacity:1;stroke-width:2;stroke-linecap:square" cx="12" cy="17" r="1"/><path style="fill:gray;fill-opacity:1;stroke:none;stroke-width:1px;stroke-linecap:butt;stroke-linejoin:miter" d="M11 6h2v5l-.4 3h-1.2l-.4-3z"/></svg>
